Papirus/24x24/panel/indicator-sensors-cpu.svg

<?xml version="1.0" encoding="UTF-8" standalone="no"?>
<svg id="svg2" xmlns:rdf="http://www.w3.org/1999/02/22-rdf-syntax-ns#" xmlns="http://www.w3.org/2000/svg" viewBox="0 0 24 24" width="24" version="1.1" xmlns:cc="http://creativecommons.org/ns#" height="24" xmlns:dc="http://purl.org/dc/elements/1.1/">
 <metadata id="metadata28">
  <rdf:RDF>
   <cc:Work rdf:about="">
    <dc:format>image/svg+xml</dc:format>
    <dc:type rdf:resource="http://purl.org/dc/dcmitype/StillImage"/>
    <dc:title/>
   </cc:Work>
  </rdf:RDF>
 </metadata>
 <g id="g4" fill="#fff" transform="translate(4 -1029.4)">
  <rect id="rect6" rx=".25" ry=".25" height="9" width="9" y="1038.4" x="5"/>
  <rect id="rect8" rx=".25" ry=".25" height="2" width="1" y="1033.4" x="13"/>
  <rect id="rect10" rx=".25" ry=".25" height="2" width="1" y="1033.4" x="9"/>
  <rect id="rect12" rx=".25" ry=".25" height="2" width="1" y="1033.4" x="5"/>
  <g id="g14" transform="matrix(0,1,-1,0,1033.4,1029.4)">
   <rect id="rect16" rx=".25" ry=".25" height="2" width="1" y="1031.4" x="17"/>
   <rect id="rect18" rx=".25" ry=".25" height="2" width="1" y="1031.4" x="13"/>
   <rect id="rect20" rx=".25" ry=".25" height="2" width="1" y="1031.4" x="9"/>
  </g>
  <path id="path22" d="m3.25 5c-0.6925 0-1.25 0.5575-1.25 1.25v0.7754c0.5716 0.1154 1 0.618 1 1.2246v0.5c0 0.6066-0.4284 1.1092-1 1.2246v1.0504c0.5716 0.116 1 0.618 1 1.225v0.5c0 0.607-0.4284 1.109-1 1.225v1.05c0.5716 0.116 1 0.618 1 1.225v0.5c0 0.599-0.418 1.095-0.9785 1.219 0.1034 0.587 0.6111 1.031 1.2285 1.031h11.5c0.692 0 1.25-0.558 1.25-1.25v-11.5c0-0.6086-0.431-1.1113-1.006-1.2246-0.014 0.5414-0.449 0.9746-0.994 0.9746h-1c-0.554 0-1-0.446-1-1h-1c0 0.554-0.446 1-1 1h-1c-0.554 0-1-0.446-1-1h-1c0 0.554-0.446 1-1 1h-1c-0.554 0-1-0.446-1-1h-0.75zm1.75 2h9c0.554 0 1 0.446 1 1v9c0 0.554-0.446 1-1 1h-9c-0.554 0-1-0.446-1-1v-9c0-0.554 0.446-1 1-1z" transform="translate(0,1030.4)"/>
 </g>
</svg>

<?xml version="1.0" encoding="UTF-8" standalone="no"?>
<svg xmlns:dc="http://purl.org/dc/elements/1.1/" xmlns:cc="http://creativecommons.org/ns#" xmlns:rdf="http://www.w3.org/1999/02/22-rdf-syntax-ns#" xmlns:svg="http://www.w3.org/2000/svg" xmlns="http://www.w3.org/2000/svg" id="svg2" viewBox="0 0 24 24" version="1.1" width="24" height="24">
    <metadata id="metadata28">
        <rdf:RDF>
            <cc:Work rdf:about="">
                <dc:format>
                    image/svg+xml
                </dc:format>
                <dc:type rdf:resource="http://purl.org/dc/dcmitype/StillImage"/>
                <dc:title/>
            </cc:Work>
        </rdf:RDF>
    </metadata>
    <g style="fill:#ffffff" id="g4" transform="translate(4.0000122,-1029.4)">
        <rect id="rect6" x="5" y="1038.4" width="9" height="9" ry="0.25" rx="0.25"/>
        <rect id="rect8" x="13" y="1033.4" width="1" height="2" ry="0.25" rx="0.25"/>
        <rect id="rect10" x="9" y="1033.4" width="1" height="2" ry="0.25" rx="0.25"/>
        <rect id="rect12" x="5" y="1033.4" width="1" height="2" ry="0.25" rx="0.25"/>
        <g id="g14" transform="matrix(0,1,-1,0,1033.4,1029.4)">
            <rect id="rect16" x="17" y="1031.4" width="1" height="2" ry="0.25" rx="0.25"/>
            <rect id="rect18" x="13" y="1031.4" width="1" height="2" ry="0.25" rx="0.25"/>
            <rect id="rect20" x="9" y="1031.4" width="1" height="2" ry="0.25" rx="0.25"/>
        </g>
        <path id="path22" transform="translate(0,1030.4)" d="M 3.25,5 C 2.5575,5 2,5.5575 2,6.25 L 2,7.0254 C 2.5716,7.1408 3,7.6434 3,8.25 l 0,0.5 C 3,9.3566 2.5716,9.8592 2,9.9746 l 0,1.0504 c 0.5716,0.116 1,0.618 1,1.225 l 0,0.5 c 0,0.607 -0.4284,1.109 -1,1.225 l 0,1.05 c 0.5716,0.116 1,0.618 1,1.225 l 0,0.5 C 3,17.349 2.582,17.845 2.0215,17.969 2.1249,18.556 2.6326,19 3.25,19 l 11.5,0 C 15.442,19 16,18.442 16,17.75 L 16,6.25 C 16,5.6414 15.569,5.1387 14.994,5.0254 14.98,5.5668 14.545,6 14,6 L 13,6 C 12.446,6 12,5.554 12,5 l -1,0 c 0,0.554 -0.446,1 -1,1 L 9,6 C 8.446,6 8,5.554 8,5 L 7,5 C 7,5.554 6.554,6 6,6 L 5,6 C 4.446,6 4,5.554 4,5 L 3.25,5 Z M 5,7 14,7 c 0.554,0 1,0.446 1,1 l 0,9 c 0,0.554 -0.446,1 -1,1 L 5,18 C 4.446,18 4,17.554 4,17 L 4,8 C 4,7.446 4.446,7 5,7 Z"/>
    </g>
</svg>
